X: 219
T: Bana Nasıl Vazgeç Dersin
C: Alâeddin Yavaşca
O: Turkey
F: http://compmusic.upf.edu/node/140
N: rast--sarki--duyek--bana_nasil--alaeddin_yavasca
N: makam= rast
N: form= sarki
N: usul= duyek = 8/4
M: 8/4
L: 1/16
K: C _1/4B ^f  
Q: 1/4=120
%%MIDI tuningsystem comma53
G2 c4 d2 =f3/2e/ dc B3/2A/ G2  | zg fg z=f ef ed2c Bc d2  | 
w:  ARANAĞME  |   | 
z=f ef ze de dc2B AB c2  | ze dc zd cB zA Bc Bc BA  | 
w:   |   | 
zd cB zc BA zG AB AB AG  | F3/2E/ D2 G2 A2 BA cB BA AG  | 
w:   |   | 
G2 d4 cB Ac BA G4  | G2 c4 d2 =f3/2e/ dc B3/2A/ G2  | \
w:   |  ARANAĞME  | 
zg fg z=f ef ed2c Bc d2  | 
w:   | 
z=f ef ze de dc2B AB c2  | ze dc zd cB zA Bc Bc BA  | 
w:   |   | 
zd cB zc BA zG AB AB AG  | F3/2E/ D2 G2 A2 BA cB BA AG  | 
w:   |   | 
G2 d4 cB Ac BA G4  | G2 A4 G2 B8  | {d}c4 {c}B4 {B}A4 G4  | \
w:   |  Ba na  na sıl   |  *  vaz *  geç  *  der sin    | 
G2 B4 z2 c4 d4  | 
w:  Gö nül  sen den   | 
z2 B4 c2 B3A G4  | G2 A4 G2 B8  | {d}c4 {c}B4 {B}A4 G4  | \
w:  vaz ge çer  *  mi    |  Ba na  na sıl   |  *  vaz *  geç  *  der sin    | 
G2 B4 z2 c4 d4  | z2 d2 c2 B2 e2 ed d2 ef  | 
w:  Gö nül  sen den   |  vaz *  ge çer  *  *  mi   SAZ  | 
g6 fe a6 gf  | g2 =fe f2 ed e2 dc d2 cB  | \
w:   |   | 
c2 BA B2 AG GA Bc d4  | 
w:   | 
d2 e4 {f}ed d4 z4  | d4 e4 d4 c2 B2  | \
w:  Gü neş *  *  *  siz   |  bir  gök  al tın  | 
c6 d2 c2 BA B4  | z2 c4 B2 B2 {c}BA A4  | 
w:  da    |  Kış  ge çer  *  *  *  mi    | 
z2 g2 =f2 e2 d2 c2 B2 A2  | G2 {c}d4 cB B2 AG G4  | \
w:  ah   |  *  *  yaz  ge *  çer  *  *  mi    | 
z2 A2 F2 E2 E3F G4  | 
w:  yaz  *  ge çer  *  mi    | 
G2 c4 d2 =f3/2e/ dc B3/2A/ G2  | zg fg z=f ef ed2c Bc d2  | 
w:  ARANAĞME  |   | 
z=f ef ze de dc2B AB c2  | ze dc zd cB zA Bc Bc BA  | 
w:   |   | 
zd cB zc BA zG AB AB AG  | F3/2E/ D2 G2 A2 BA cB BA AG  | 
w:   |   | 
G2 d4 cB Ac BA G4  | G2 c4 d2 =f3/2e/ dc B3/2A/ G2  | \
w:   |  ARANAĞME  | 
zg fg z=f ef ed2c Bc d2  | 
w:   | 
z=f ef ze de dc2B AB c2  | ze dc zd cB zA Bc Bc BA  | 
w:   |   | 
zd cB zc BA zG AB AB AG  | F3/2E/ D2 G2 A2 BA cB BA AG  | 
w:   |   | 
G2 d4 cB Ac BA G4  | G2 G2 B2 c2 d6 d2  | \
w:   |  *  O ku du ğum  du  | 
d8 _7/8e3d c4  | z2 c2 d2 _7/8e2 f6 e2  | 
w:  a  sen *  sin    |  Kalp_ ağ rı ma  de  | 
g6 a2 f3_7/8e dc BA  | G2 G2 B2 c2 d6 d2  | \
w:  va  *  sen *  sin    |  *  O ku du ğum  du  | 
d8 _7/8e3d c4  | z2 c2 d2 _7/8e2 f6 e2  | 
w:  a  sen *  sin    |  Kalp_ ağ rı ma  de  | 
g6 a2 f3_7/8e d4  | _b6 ag a6 f_7/8e  | \
w:  va  *  sen *  sin    |  SAZ  | 
d2 _7/8ef e2 fg a2 gf fe ed  | 
w:   | 
d4 dB cA GA Bc d4  | z2 g2 =f2 e2 d6 e2  | \
w:   |  Kok la dı ğım  ha  | 
d2 c4 de dc BA B4  | 
w:  va  *  *  *  sen *  *  *  sin    | 
c2 c4 cB B2 {c}_2/4BA A4  | z2 c2 B2 A2 B3A G4  | \
w:  Gö nül  *  *  sen *  *  *  den   |  vaz *  ge çer  *  mi    | 
z2 g2 =f2 e2 d2 c2 B2 A2  | 
w:  ah   | 
G2 {e}d4 cB B2 AG G4  | z2 G2 F2 E2 E3F G4  | |


